X: 33672
T: Rambling Rake, The
R: hornpipe
M: 4/4
K: Adorian
E2|AGAB cBcd|(3efg ec d2 ge|(3ddd ge (3ddd ge|dcBA G2 E2|
AGAB cBcd|(3efg ec d2 ge|dBGB dedB|c2 A2 A2:|
|:d2|(3efg ec d2 g2|(3efg ec d2 g2|(3ffg af d2 g2|(3ffg af d2 ga|
bagf efga|bagf e2 ga|baga bagf|edef gggf|
(3efg ec d2 g2|efed cccB|ABce ggge|dcBA G2 E2|
AGAB cBcd|(3efg ec d2 ge|dBGB dedB|c2 A2 A2:|

